X:19276
T:Ziganoff
M:4/4
L:1/8
Q:1/4=200
C:Traditional Yiddish
S:Caravanserai - "Pig"
Z:Malcolm Downi
K:Em
P:A
B ef|g e4 B ef|g e4 B ef|g2 g2 g2 fe|g g-g4 ga|!
|:b2 g2 a3 c'|b2 {a}gf e2 d2|g2 {a}bg a2 gf|[1e6 z2:|[2e4 z||!
B ef|g e4 B ef|g e4 B ef|g2 g2 g2 fe|g g-g4 ga|!
b2 g2 a3 c'|b2 {a}gf e2 d2|g2 {a}bg a2 gf|e6 z2||!
P:B (Finish on this part)
A2 A3 c BA|B2 G3 B AG|A2 D2 ddcA|B8|!
A2 A3 c BA|B2 B2 c2 BA|G2 G2 AAGF|E8:|!
P:C
e4 e4|e2 e2 e2 e2|eeBe gf e2|ddGB dc B2|A A2 d3 cA|!
B4 e4|eeBe gf e2|ddGB dc B2|A A2 c B2 AF|E8||!



XII
R:Romance
C:Tradicional
S:Música Tradicional Asturiana, (C) Tello & Tito. Asturies, 2001.
S:http://pagina.de/MusTradAst <telloytito@asturies.org>
N:Romancero vulgar usado para el corro
A:Asturies
Z:DyC en Teberga
M:3/4
L:1/8
Q:1/4=80
K:Dm
D>F
|: A2 A2 D>F|A2 A2 D>F|A3 G BA|G4 G>A|
|B2 B2 A>G|A2 A2 E>F|G3 E FE|[1 D2 D>F :|[2 D2 z4|



